Sources/FrostedUI/Resources/Icons.xcassets/inbox12.imageset/inbox-12.svg

<svg width="12" height="12" viewBox="0 0 12 12" fill="none" xmlns="http://www.w3.org/2000/svg" data-fui-icon="true">
  <g clip-path="url(#clip0_3954_23)">
    <path
      d="M9.42871 0.25C10.7106 0.250179 11.7498 1.28936 11.75 2.57129V9.42871C11.7498 10.7106 10.7106 11.7498 9.42871 11.75H2.57129C1.28936 11.7498 0.250179 10.7106 0.25 9.42871V2.57129C0.250179 1.28936 1.28936 0.250179 2.57129 0.25H9.42871ZM1.75 9.42871C1.75018 9.88222 2.11778 10.2498 2.57129 10.25H9.42871C9.88222 10.2498 10.2498 9.88222 10.25 9.42871V7.75H8.37109C8.03872 8.72878 7.07798 9.41699 6 9.41699C4.92202 9.41699 3.96128 8.72878 3.62891 7.75H1.75V9.42871ZM2.57129 1.75C2.11778 1.75018 1.75018 2.11778 1.75 2.57129V6.25H4.25391C4.66812 6.25 5.00391 6.58579 5.00391 7C5.00391 7.46591 5.42497 7.91699 6 7.91699C6.57503 7.91699 6.99609 7.46591 6.99609 7C6.99609 6.58579 7.33188 6.25 7.74609 6.25H10.25V2.57129C10.2498 2.11778 9.88222 1.75018 9.42871 1.75H2.57129Z"
      fill="currentColor"
    />
  </g>
  <defs>
    <clipPath id="clip0_3954_23"><path fill="currentColor" d="M0 0H12V12H0z" /></clipPath>
  </defs>
</svg>

<svg xmlns="http://www.w3.org/2000/svg" width="12" height="12" fill="none" data-fui-icon="true" viewBox="0 0 12 12"><g clip-path="url(#a)"><path fill="currentColor" d="M9.429.25a2.32 2.32 0 0 1 2.321 2.321V9.43a2.32 2.32 0 0 1-2.321 2.321H2.57A2.32 2.32 0 0 1 .25 9.429V2.57A2.32 2.32 0 0 1 2.571.25zM1.75 9.429c0 .453.368.82.821.821H9.43a.82.82 0 0 0 .821-.821V7.75H8.371C8.04 8.729 7.078 9.417 6 9.417S3.961 8.729 3.629 7.75H1.75zm.821-7.679a.82.82 0 0 0-.821.821V6.25h2.504a.75.75 0 0 1 .75.75c0 .466.421.917.996.917s.996-.451.996-.917a.75.75 0 0 1 .75-.75h2.504V2.571a.82.82 0 0 0-.821-.821z"/></g><defs><clipPath id="a"><path fill="currentColor" d="M0 0h12v12H0z"/></clipPath></defs></svg>
